storage/app/icons/phosphoricons/duotone/align-left-duotone.svg

<svg xmlns="http://www.w3.org/2000/svg" fill="currentColor" viewBox="0 0 256 256"><path d="M72 104V64a8 8 0 0 1 8-8h96a8 8 0 0 1 8 8v40a8 8 0 0 1-8 8H80a8 8 0 0 1-8-8m144 40H80a8 8 0 0 0-8 8v40a8 8 0 0 0 8 8h136a8 8 0 0 0 8-8v-40a8 8 0 0 0-8-8" opacity=".2"/><path d="M216 136H80a16 16 0 0 0-16 16v40a16 16 0 0 0 16 16h136a16 16 0 0 0 16-16v-40a16 16 0 0 0-16-16m0 56H80v-40h136zM48 40v176a8 8 0 0 1-16 0V40a8 8 0 0 1 16 0m32 80h96a16 16 0 0 0 16-16V64a16 16 0 0 0-16-16H80a16 16 0 0 0-16 16v40a16 16 0 0 0 16 16m0-56h96v40H80Z"/></svg>

<svg xmlns="http://www.w3.org/2000/svg" viewBox="0 0 256 256" fill="currentColor"><path d="M72,104V64a8,8,0,0,1,8-8h96a8,8,0,0,1,8,8v40a8,8,0,0,1-8,8H80A8,8,0,0,1,72,104Zm144,40H80a8,8,0,0,0-8,8v40a8,8,0,0,0,8,8H216a8,8,0,0,0,8-8V152A8,8,0,0,0,216,144Z" opacity="0.2"/><path d="M216,136H80a16,16,0,0,0-16,16v40a16,16,0,0,0,16,16H216a16,16,0,0,0,16-16V152A16,16,0,0,0,216,136Zm0,56H80V152H216v40ZM48,40V216a8,8,0,0,1-16,0V40a8,8,0,0,1,16,0Zm32,80h96a16,16,0,0,0,16-16V64a16,16,0,0,0-16-16H80A16,16,0,0,0,64,64v40A16,16,0,0,0,80,120Zm0-56h96v40H80Z"/></svg>
